X:23
M:6/8
L:1/8
K:G
d3 a3|fdf e^ce|d3 a3|fdf e^ce|(g2e) (f2d)|e^c2 d2b|agf ed^c|(d3 d/)=c/B/A/G/F/|

